X: 568
%
T: The Seaforth Highlanders
C:
O:Scotland
B:Keith Norman MacDonald : "The Skye collection of the best reels & strathspeys extant" : 1887
Z:Ralph Palmer
R:Strathspey
M:C
L:1/8
K:A
B | A/2A/2A a2 A/2A/2A e2 | A/2A/2A a2 cAAA | A/2A/2A a2 A/2A/2 e2 | B=gdg BGGB |
A/2A/2A a2 A/2A/2A e2 | A/2A/2A a2 cAAc | d<df>d c<ce>c | B=gdg BGG ||
B| A/2A/2A e2 A/2A/2A f2 | A/2A/2A e2 cABc | A/2A/2A e2 A/2A/2A f2 | B=gdg BGGB |
A/2A/2A e2 A/2A/2A e2 | A/2A/2A e2 cAAc | d<fd>f cece | BgBg BGG |]


